ui/StatusQ/src/assets/img/icons/dots-icon.svg

<svg fill="none" height="4" viewBox="0 0 18 4" width="18" xmlns="http://www.w3.org/2000/svg"><g fill="#939ba1"><path d="m4 2c0 1.10457-.89543 2-2 2-1.104569 0-2-.89543-2-2 0-1.104569.895431-2 2-2 1.10457 0 2 .895431 2 2z"/><path d="m11 2c0 1.10457-.8954 2-2 2-1.10457 0-2-.89543-2-2 0-1.104569.89543-2 2-2 1.1046 0 2 .895431 2 2z"/><path d="m16 4c1.1046 0 2-.89543 2-2 0-1.104569-.8954-2-2-2s-2 .895431-2 2c0 1.10457.8954 2 2 2z"/></g></svg>

<svg width="18" height="4" viewBox="0 0 18 4" fill="none" xmlns="http://www.w3.org/2000/svg">
<path d="M4 2C4 3.10457 3.10457 4 2 4C0.895431 4 0 3.10457 0 2C0 0.895431 0.895431 0 2 0C3.10457 0 4 0.895431 4 2Z" fill="#939BA1"/>
<path d="M11 2C11 3.10457 10.1046 4 9 4C7.89543 4 7 3.10457 7 2C7 0.895431 7.89543 0 9 0C10.1046 0 11 0.895431 11 2Z" fill="#939BA1"/>
<path d="M16 4C17.1046 4 18 3.10457 18 2C18 0.895431 17.1046 0 16 0C14.8954 0 14 0.895431 14 2C14 3.10457 14.8954 4 16 4Z" fill="#939BA1"/>
</svg>
